X:90
T:Irish Washerwoman,The. JBs.90
S:Jas.Blackshaw MS, 1837, N.Shropshire
A:North Shropshire
Z:T. Weatherall 2006
M:6/8
L:1/8
Q:3/8=120
R:Jig
K:C
d/c/|BGG DGG|BGB dcB|cAA DAA|cAc edc|!
BGG DGG|BGB dcB|d/c/Bc Adc|BGG G2:|!
|:g/a/|bgg dgg|bgb bag|afd Bdg|fdf agf|!
egg dgg|cgg Bgg|d/c/Bc Adc|BGG G2:|

